src/assets/icons/verified-icon.svg

<svg xmlns="http://www.w3.org/2000/svg" width="800" height="800" viewBox="0 0 117 117"><title/><g fill="none" fill-rule="nonzero"><path fill="#17ab13" d="M34.5 55.1c-1.6-1.6-4.2-1.6-5.8 0s-1.6 4.2 0 5.8l18.9 18.9c.8.8 1.8 1.2 2.9 1.2h.2c1.1-.1 2.2-.6 3-1.5L101 22.8c1.4-1.7 1.2-4.3-.5-5.8-1.7-1.4-4.3-1.2-5.8.5L50.2 70.8z"/><path fill="#4a4a4a" d="M89.1 9.3c-23-14.4-52.5-11-71.7 8.2-22.6 22.6-22.6 59.5 0 82.1a57.94 57.94 0 0 0 82 0c19.3-19.3 22.6-48.9 8.1-71.9-1.2-1.9-3.7-2.5-5.6-1.3s-2.5 3.7-1.3 5.6c12.5 19.8 9.6 45.2-7 61.8-19.4 19.4-51.1 19.4-70.5 0s-19.4-51.1 0-70.5C39.7 6.8 65 3.9 84.8 16.2c1.9 1.2 4.4.6 5.6-1.3s.6-4.4-1.3-5.6"/></g></svg>

<?xml version="1.0" ?>
<!-- Uploaded to: SVG Repo, www.svgrepo.com, Generator: SVG Repo Mixer Tools -->
<svg width="800px" height="800px" viewBox="0 0 117 117" version="1.1" xmlns="http://www.w3.org/2000/svg" xmlns:xlink="http://www.w3.org/1999/xlink">
<title/>
<desc/>
<defs/>
<g fill="none" fill-rule="evenodd" id="Page-1" stroke="none" stroke-width="1">
<g fill-rule="nonzero" id="correct">
<path d="M34.5,55.1 C32.9,53.5 30.3,53.5 28.7,55.1 C27.1,56.7 27.1,59.3 28.7,60.9 L47.6,79.8 C48.4,80.6 49.4,81 50.5,81 C50.6,81 50.6,81 50.7,81 C51.8,80.9 52.9,80.4 53.7,79.5 L101,22.8 C102.4,21.1 102.2,18.5 100.5,17 C98.8,15.6 96.2,15.8 94.7,17.5 L50.2,70.8 L34.5,55.1 Z" fill="#17AB13" id="Shape"/>
<path d="M89.1,9.3 C66.1,-5.1 36.6,-1.7 17.4,17.5 C-5.2,40.1 -5.2,77 17.4,99.6 C28.7,110.9 43.6,116.6 58.4,116.6 C73.2,116.6 88.1,110.9 99.4,99.6 C118.7,80.3 122,50.7 107.5,27.7 C106.3,25.8 103.8,25.2 101.9,26.4 C100,27.6 99.4,30.1 100.6,32 C113.1,51.8 110.2,77.2 93.6,93.8 C74.2,113.2 42.5,113.2 23.1,93.8 C3.7,74.4 3.7,42.7 23.1,23.3 C39.7,6.8 65,3.9 84.8,16.2 C86.7,17.4 89.2,16.8 90.4,14.9 C91.6,13 91,10.5 89.1,9.3 Z" fill="#4A4A4A" id="Shape"/>
</g>
</g>
</svg>
